X:28
T:The Jolly Beggar Man
S:Bernie Waugh
R:Reel
M:4/4
L:1/8
K:D
|:E2|\
"D"F2FG FEDE|FAAB AFED|d2(3efg fdec|"G"dBAF "A"E2DE|
"D"^EFFG F=EDE|FAAB AFDA|dcdg "A"fdec|"D"dBAF D2:|
(3ABc|:\
"D"d2AG FDFA|dfaf "A"gfeg|"D"fAdf "A"eAce|"E7"dfed "A"cAA=c|
"G"BDGB "D"ADFA|dfaf gfed|"G"(3B/B/Bec "D"dBAF|"A"(3G/G/GEA "D"FDD2:|

